dist/img/icons/events/heal.svg

<svg width="43" height="50" viewBox="0 0 43 50" fill="none" xmlns="http://www.w3.org/2000/svg">
<g filter="url(#filter0_d_929_26463)">
<path fill-rule="evenodd" clip-rule="evenodd" d="M25.5789 8.375C24.8217 8.375 24.0954 8.66693 23.56 9.18656C23.0245 9.70619 22.7237 10.411 22.7237 11.1458V11.9375H25.5789C26.3362 11.9375 27.0625 11.6456 27.5979 11.1259C28.1334 10.6063 28.4342 9.90154 28.4342 9.16667V8.375H25.5789ZM20.2763 11.1458C20.2763 9.78107 20.835 8.47221 21.8294 7.50718C22.8239 6.54215 24.1726 6 25.5789 6H29.6579C30.3337 6 30.8816 6.53166 30.8816 7.1875V9.16667C30.8816 10.5314 30.3229 11.8403 29.3285 12.8053C28.334 13.7704 26.9853 14.3125 25.5789 14.3125H25.0477C31.8984 15.8692 37 21.8356 37 28.9583C37 37.2656 30.0604 44 21.5 44C12.9396 44 6 37.2656 6 28.9583C6 21.0507 12.2879 14.5683 20.2763 13.9629V11.1458ZM20.2763 16.3466C13.6413 16.9453 8.44737 22.3632 8.44737 28.9583C8.44737 35.9539 14.2912 41.625 21.5 41.625C28.7088 41.625 34.5526 35.9539 34.5526 28.9583C34.5526 22.3632 29.3587 16.9453 22.7237 16.3466V21.7293C23.4894 21.5985 24.2572 21.3452 25.0314 20.9693C25.6358 20.6758 26.3709 20.9134 26.6733 21.4999C26.9757 22.0864 26.7309 22.7997 26.1265 23.0932C23.0632 24.5807 19.9368 24.5807 16.8735 23.0932C16.2691 22.7997 16.0243 22.0864 16.3267 21.4999C16.6291 20.9134 17.3642 20.6758 17.9686 20.9693C18.7428 21.3452 19.5106 21.5985 20.2763 21.7292V16.3466Z" fill="#00A7DE"/>
<path fill-rule="evenodd" clip-rule="evenodd" d="M25.5789 8.375C24.8217 8.375 24.0954 8.66693 23.56 9.18656C23.0245 9.70619 22.7237 10.411 22.7237 11.1458V11.9375H25.5789C26.3362 11.9375 27.0625 11.6456 27.5979 11.1259C28.1334 10.6063 28.4342 9.90154 28.4342 9.16667V8.375H25.5789ZM20.2763 11.1458C20.2763 9.78107 20.835 8.47221 21.8294 7.50718C22.8239 6.54215 24.1726 6 25.5789 6H29.6579C30.3337 6 30.8816 6.53166 30.8816 7.1875V9.16667C30.8816 10.5314 30.3229 11.8403 29.3285 12.8053C28.334 13.7704 26.9853 14.3125 25.5789 14.3125H25.0477C31.8984 15.8692 37 21.8356 37 28.9583C37 37.2656 30.0604 44 21.5 44C12.9396 44 6 37.2656 6 28.9583C6 21.0507 12.2879 14.5683 20.2763 13.9629V11.1458ZM20.2763 16.3466C13.6413 16.9453 8.44737 22.3632 8.44737 28.9583C8.44737 35.9539 14.2912 41.625 21.5 41.625C28.7088 41.625 34.5526 35.9539 34.5526 28.9583C34.5526 22.3632 29.3587 16.9453 22.7237 16.3466V21.7293C23.4894 21.5985 24.2572 21.3452 25.0314 20.9693C25.6358 20.6758 26.3709 20.9134 26.6733 21.4999C26.9757 22.0864 26.7309 22.7997 26.1265 23.0932C23.0632 24.5807 19.9368 24.5807 16.8735 23.0932C16.2691 22.7997 16.0243 22.0864 16.3267 21.4999C16.6291 20.9134 17.3642 20.6758 17.9686 20.9693C18.7428 21.3452 19.5106 21.5985 20.2763 21.7292V16.3466Z" stroke="#107ADC" stroke-width="0.5"/>
</g>
<defs>
<filter id="filter0_d_929_26463" x="0.75" y="0.75" width="41.5" height="48.5" filterUnits="userSpaceOnUse" color-interpolation-filters="sRGB">
<feFlood flood-opacity="0" result="BackgroundImageFix"/>
<feColorMatrix in="SourceAlpha" type="matrix" values="0 0 0 0 0 0 0 0 0 0 0 0 0 0 0 0 0 0 127 0" result="hardAlpha"/>
<feOffset/>
<feGaussianBlur stdDeviation="2.5"/>
<feComposite in2="hardAlpha" operator="out"/>
<feColorMatrix type="matrix" values="0 0 0 0 0.00760418 0 0 0 0 0.532444 0 0 0 0 0.9125 0 0 0 1 0"/>
<feBlend mode="normal" in2="BackgroundImageFix" result="effect1_dropShadow_929_26463"/>
<feBlend mode="normal" in="SourceGraphic" in2="effect1_dropShadow_929_26463" result="shape"/>
</filter>
</defs>
</svg>

<svg width="43" height="50" fill="none" xmlns="http://www.w3.org/2000/svg"><g filter="url(#a)" clip-rule="evenodd"><path fill-rule="evenodd" d="M25.579 8.375a2.9 2.9 0 0 0-2.019.812 2.73 2.73 0 0 0-.836 1.959v.791h2.855a2.9 2.9 0 0 0 2.019-.811 2.73 2.73 0 0 0 .836-1.96v-.791H25.58Zm-5.303 2.77a5.07 5.07 0 0 1 1.553-3.638A5.386 5.386 0 0 1 25.58 6h4.079c.676 0 1.224.532 1.224 1.188v1.979a5.07 5.07 0 0 1-1.554 3.638 5.386 5.386 0 0 1-3.75 1.508h-.53C31.898 15.869 37 21.835 37 28.957 37 37.266 30.06 44 21.5 44 12.94 44 6 37.266 6 28.958c0-7.907 6.288-14.39 14.276-14.995v-2.817Zm0 5.202c-6.635.598-11.829 6.016-11.829 12.611 0 6.996 5.844 12.667 13.053 12.667 7.209 0 13.053-5.671 13.053-12.667 0-6.595-5.194-12.013-11.83-12.611v5.382a8.587 8.587 0 0 0 2.308-.76 1.241 1.241 0 0 1 1.642.53c.303.587.058 1.3-.546 1.594-3.064 1.488-6.19 1.488-9.253 0a1.171 1.171 0 0 1-.547-1.593 1.241 1.241 0 0 1 1.642-.53c.774.375 1.542.629 2.307.76v-5.383Z" fill="#00A7DE"/><path d="M25.579 8.375a2.9 2.9 0 0 0-2.019.812 2.73 2.73 0 0 0-.836 1.959v.791h2.855a2.9 2.9 0 0 0 2.019-.811 2.73 2.73 0 0 0 .836-1.96v-.791H25.58Zm-5.303 2.77a5.07 5.07 0 0 1 1.553-3.638A5.386 5.386 0 0 1 25.58 6h4.079c.676 0 1.224.532 1.224 1.188v1.979a5.07 5.07 0 0 1-1.554 3.638 5.386 5.386 0 0 1-3.75 1.508h-.53C31.898 15.869 37 21.835 37 28.957 37 37.266 30.06 44 21.5 44 12.94 44 6 37.266 6 28.958c0-7.907 6.288-14.39 14.276-14.995v-2.817Zm0 5.202c-6.635.598-11.829 6.016-11.829 12.611 0 6.996 5.844 12.667 13.053 12.667 7.209 0 13.053-5.671 13.053-12.667 0-6.595-5.194-12.013-11.83-12.611v5.382a8.587 8.587 0 0 0 2.308-.76 1.241 1.241 0 0 1 1.642.53c.303.587.058 1.3-.546 1.594-3.064 1.488-6.19 1.488-9.253 0a1.171 1.171 0 0 1-.547-1.593 1.241 1.241 0 0 1 1.642-.53c.774.375 1.542.629 2.307.76v-5.383Z" stroke="#107ADC" stroke-width=".5"/></g><defs><filter id="a" x=".75" y=".75" width="41.5" height="48.5" filterUnits="userSpaceOnUse" color-interpolation-filters="sRGB"><feFlood flood-opacity="0" result="BackgroundImageFix"/><feColorMatrix in="SourceAlpha" values="0 0 0 0 0 0 0 0 0 0 0 0 0 0 0 0 0 0 127 0" result="hardAlpha"/><feOffset/><feGaussianBlur stdDeviation="2.5"/><feComposite in2="hardAlpha" operator="out"/><feColorMatrix values="0 0 0 0 0.00760418 0 0 0 0 0.532444 0 0 0 0 0.9125 0 0 0 1 0"/><feBlend in2="BackgroundImageFix" result="effect1_dropShadow_929_26463"/><feBlend in="SourceGraphic" in2="effect1_dropShadow_929_26463" result="shape"/></filter></defs></svg>
